X:1
T:The Cleansing Fountain
T:The Cleansing Fountain
T:Ira David Sankey
T:Ira David Sankey, 1887
T:Public Domain Courtesy of the Cyber Hymnal™
C:Ira David Sankey
Z:Public Domain
Z:Courtesy of the Cyber Hymnal™
%%score ( 1 2 ) ( 3 4 )
L:1/8
Q:1/4=105
M:6/8
K:Ab
V:1 treble 
V:2 treble 
V:3 bass 
V:4 bass 
V:1
 [CE] | [CE]2 [CE] (EF)[DG] | [CA]2 [CA] (AG)[EA] | [EB]2 [DA] [CA]2 [EB] | [Ec]3- [Ec]2 [Ac] | %5
w: 1.~Be-|hold a foun- * tain|deep and wide, * Be-|hold its on- ward|flow; * ’Twas|
w: 2.~From|Cal- v’ry’s cross, * where|Je- sus died * In|sor- row, pain, and|woe; * Burst|
w: 3.~Oh,|may we all * the|heal- ing power * Of|that blest foun- tain|know! * Trust|
w: 4.~And|when at last * the|mes- sage comes, * And|we are called to|go, * Our|
 [Gd]2 [Ac] [EB]2 [=DA] | [EG]2 [=DA] [EB]2 [EB] | [Ec]2 [Ec] (=dc)[Ad] | [Ge]3- [Ge]2 [Ed] | %9
w: o- pened in the|Sav- ior’s side, And|cleans- eth white * as|snow, * And|
w: forth the wond- rous|crim- son tide That|cleans- eth white * as|snow, * That|
w: on- ly in the|pre- cious blood That|cleans- eth white * as|snow, * That|
w: trust shall still be|in the blood That|cleans- eth white * as|snow, * That|
 [Ec]2 [EA] (BA)[DG] | [CA]3- [CA]2 z ||"^Refrain" [Ec]3 [CA]2 [DF] | ([CE]2 [=B,=D]) [CE]2 [CA] | %13
w: cleans- eth white * as|snow! *|||
w: cleans- eth white * as|snow! *|Come to this|foun- * tain! ’Tis|
w: cleans- eth white * as|snow! *|||
w: cleans- eth white * as|snow! *|||
 [Ec]3 [EB]2 [EA] [Ge]3- [Ge]2 [Ed] | [Ec]2 [Fd] [Ec]2 [EB] | [EA]2 [=EG] (BA)[DF] | %16
w: |||
w: flow- ing to- day; * And|all who will may|free- ly come, * And|
w: |||
w: |||
 ([CE][=B,=D])[CE] !fermata![Ec]2 [_D_B] | [CA]3- [CA]2 |] %18
w: ||
w: wash * their sins a-|way. *|
w: ||
w: ||
V:2
 x | x3 D2 x | x3 E2 x | x6 | x6 | x6 | x6 | x3 A2 x | x6 | x3 D2 x | x6 || x6 | x6 | x12 | x6 | %15
 x3 F2 x | x6 | x5 |] %18
V:3
 [A,,A,] | [A,,A,]2 [A,,A,] (G,A,)[E,B,] | [A,,A,]2 [A,,A,] ([A,,C][B,,B,])[C,A,] | %3
 [E,G,]2 [E,G,] [F,A,]2 [E,G,] | A,3- A,2 [A,E] | [B,E]2 [A,E] [G,B,]2 [F,B,] | %6
 [E,B,]2 [F,B,] [G,B,]2 [E,G,] | A,2 A, [F,B,]2 B, | [E,B,]3- [E,B,]2 [G,B,] | %9
 A,2 [C,A,] (G,A,)[E,B,] | [A,,A,]3- [A,,A,]2 z || [A,,A,]3 [A,,A,]2 [A,,A,] | %12
 (A,2 F,) [A,,A,]2 A, | A,3 [G,D]2 [A,C] [E,B,]3- [E,B,]2 [G,B,] | A,2 A, [A,,A,]2 [B,,G,] | %15
 [C,A,]2 [C,B,] [D,A,]2 [D,A,] | A,2 [E,A,] !fermata![E,G,]2 [E,G,] | [A,,A,]3- [A,,A,]2 |] %18
V:4
 x | x3 E,2 x | x6 | x6 | A,3- A,2 x | x6 | x6 | A,2 A, x B, x | x6 | A,2 E,2 x2 | x6 || x6 | %12
 A,,3 A, x2 | A,3 x9 | A,2 A, x3 | x6 | (E,F,) x4 | x5 |] %18

